weblate_web/static/img/openshift.svg

<svg xmlns="http://www.w3.org/2000/svg" xmlns:xlink="http://www.w3.org/1999/xlink" width="222" height="59" version="1.1" viewBox="0 0 222 59"><title>2C7FDA61-60A9-47E3-9AA5-5FB7CE84855B</title><desc>Created with sketchtool.</desc><g id="Weblate" fill="none" fill-rule="evenodd" stroke="none" stroke-width="1"><g id="Download" fill-rule="nonzero" transform="translate(-755.000000, -1587.000000)"><g id="OpenShift-LogoType" transform="translate(755.000000, 1587.000000)" style="mix-blend-mode:luminosity"><g id="Group" transform="translate(0.172375, 0.000000)"><path id="path44560" fill="#1FA385" d="M63.9485875,14.9832687 C63.2329625,13.5051437 62.4048375,12.0785807 61.4439,10.7332682 L51.178275,14.4692062 C52.372025,15.6910812 53.37515,17.0645187 54.1954625,18.5332687 L63.9485875,14.9832687 L63.9485875,14.9832687 Z M18.57,26.3374937 L8.30125,30.0734312 C8.4325,31.7203062 8.716875,33.3468687 9.1153125,34.9406187 L18.87,31.3890562 C18.5528125,29.7390562 18.4403125,28.0390562 18.57,26.3374937 L18.57,26.3374937 Z"/><path id="path44564" fill="#1FA385" d="M41.3590625,12.0751432 C43.495,13.0720187 45.345,14.4313937 46.9059375,16.0251437 L57.1715625,12.2892057 C54.3278125,8.29858073 50.454375,4.96420573 45.7090625,2.75014323 C31.0325,-4.09360677 13.523125,2.27826823 6.6809375,16.9532687 C4.4653125,21.7017062 3.641875,26.7454562 4.029375,31.6298312 L14.2965625,27.8938937 C14.466875,25.6688937 15.0090625,23.4392062 16.004375,21.3017062 C20.45125,11.7673307 31.8246875,7.62983073 41.3590625,12.0751432"/><path id="path44572" fill="#1FA385" d="M52.3085875,30.8353062 C52.144525,33.0587437 51.5835875,35.2884312 50.58515,37.4274937 C46.1398375,46.9634312 34.7648375,51.1009312 25.232025,46.6556187 C23.0929625,45.6571812 21.2289,44.3087437 19.6742125,42.7118687 L9.4289,46.4399937 C12.2664,50.4306187 16.13515,53.7665562 20.8835875,55.9821812 C35.56015,62.8243687 53.0664,56.4524937 59.91015,41.7759312 C62.1273375,37.0306187 62.944525,31.9868687 62.5539,27.1071812 L52.3085875,30.8353062 L52.3085875,30.8353062 Z"/><path id="path44576" fill="#1FA385" d="M54.833125,18.3013937 L45.0784375,21.8513937 C46.8909375,25.0982687 47.7471875,28.8357687 47.4659375,32.5951437 L57.71125,28.8685812 C57.4175,25.1920187 56.4378125,21.6029562 54.833125,18.3013937 M9.7546875,34.7063937 L0,38.2595187 C0.8953125,41.8157687 2.45,45.1954562 4.5875,48.2032687 L14.83125,44.4735812 C12.2015625,41.7735812 10.453125,38.3563937 9.7546875,34.7063937"/><path id="path44584" fill="#144D3F" d="M62.4617125,12.2787432 C62.138275,11.7537432 61.8023375,11.2365557 61.444525,10.7334307 L51.1789,14.4693687 C51.6304625,14.9318687 52.0460875,15.4224937 52.4429625,15.9256187 L62.4617125,12.2787432 Z M18.530775,28.3992062 C18.505775,27.7148312 18.51665,27.0273312 18.569775,26.3382687 L8.301025,30.0742062 C8.35415,30.7320187 8.4369625,31.3851437 8.5354,32.0367062 L18.5307125,28.3992062 L18.530775,28.3992062 Z"/><path id="path44588" fill="#144D3F" d="M62.553275,27.1070187 L52.3079625,30.8351437 C52.2000875,32.3101437 51.91265,33.7882687 51.4423375,35.2413937 L62.5939,31.1757687 C62.67365,29.8132687 62.661025,28.4538937 62.553275,27.1070187 L62.553275,27.1070187 Z M9.4298375,46.4413937 C10.2189,47.5523312 11.0923375,48.6117062 12.040775,49.6117062 L23.1939,45.5445187 C21.890775,44.7288937 20.71265,43.7773312 19.6735875,42.7117062 L9.4298375,46.4413937 Z"/></g><path id="path44622" fill="#144D3F" d="M209.2233,20.288425 L209.2233,22.138425 L214.588925,22.138425 L214.588925,38.5228 L216.620175,38.5228 L216.620175,22.138425 L221.988925,22.138425 L221.988925,20.288425 L209.2233,20.288425 Z M196.90205,22.136875 L196.90205,28.180625 L201.90205,28.180625 L201.90205,30.030625 L196.90205,30.030625 L196.90205,38.52125 L194.8708,38.52125 L194.8708,20.29 L205.57705,20.29 L205.57705,22.136875 L196.90205,22.136875 Z M187.607675,20.290625 L189.638925,20.290625 L189.638925,38.525 L187.607675,38.525 L187.607675,20.290625 Z M180.34705,38.5228 L180.34705,29.925925 L171.281425,29.925925 L171.281425,38.5228 L169.250175,38.5228 L169.250175,20.288425 L171.281425,20.288425 L171.281425,28.07905 L180.34705,28.07905 L180.34705,20.288425 L182.3783,20.288425 L182.3783,38.5228 L180.34705,38.5228 Z M158.680175,38.809375 C156.205175,38.809375 153.98955,37.740625 152.5583,36.284375 L153.91455,34.771875 C155.292675,36.1 156.8833,36.9625 158.7583,36.9625 C161.180175,36.9625 162.692675,35.7625 162.692675,33.834375 C162.692675,32.140625 161.67705,31.178125 158.342675,29.978125 C154.4083,28.571875 153.080175,27.296875 153.080175,24.665625 C153.080175,21.746875 155.3708,20 158.7833,20 C161.2333,20 162.7958,20.73125 164.3333,21.95625 L163.030175,23.54375 C161.70205,22.45 160.47705,21.85 158.655175,21.85 C156.15205,21.85 155.111425,23.1 155.111425,24.534375 C155.111425,26.046875 155.78955,26.903125 159.436425,28.209375 C163.473925,29.665625 164.723925,31.021875 164.723925,33.73125 C164.723925,36.596875 162.4833,38.809375 158.680175,38.809375 L158.680175,38.809375 Z M144.326425,38.5228 L137.632675,28.5728 C137.188925,27.894675 136.588925,26.982175 136.35455,26.513425 C136.35455,27.19155 136.40755,29.482175 136.40755,30.4978 L136.40755,38.5228 L132.810675,38.5228 L132.810675,20.288425 L136.3013,20.288425 L142.7638,29.925925 C143.20755,30.60405 143.804425,31.51655 144.0388,31.9853 C144.0388,31.307175 143.9888,29.01655 143.9888,27.9978 L143.9888,20.288425 L147.58255,20.288425 L147.58255,38.5228 L144.3263,38.5228 L144.326425,38.5228 Z M115.573625,38.5228 L115.573625,20.288425 L128.233,20.288425 L128.233,23.857175 L119.2205,23.857175 L119.2205,27.0103 L124.458,27.0103 L124.458,30.550925 L119.2205,30.550925 L119.2205,34.95405 L128.623625,34.95405 L128.623625,38.5228 L115.573625,38.5228 L115.573625,38.5228 Z M105.21175,32.06375 L101.19925,32.06375 L101.19925,38.523125 L97.552375,38.523125 L97.552375,20.28875 L105.52425,20.28875 C108.96175,20.28875 111.802375,22.191875 111.802375,26.07 C111.802375,30.291875 108.989875,32.06375 105.21175,32.06375 L105.21175,32.06375 Z M105.39625,23.8325 L101.199375,23.8325 L101.199375,28.52 L105.44625,28.52 C107.14,28.52 108.0525,27.735625 108.0525,26.148125 C108.0525,24.560625 107.00875,23.8325 105.39625,23.8325 L105.39625,23.8325 Z M85.525,38.809375 C80.75625,38.809375 77.5,35.31875 77.5,29.43125 C77.5,23.54375 80.809375,20 85.578125,20 C90.31875,20 93.575,23.49375 93.575,29.38125 C93.575,35.26875 90.265625,38.809375 85.525,38.809375 L85.525,38.809375 Z M85.5,23.621875 C82.946875,23.621875 81.253125,25.68125 81.253125,29.38125 C81.253125,33.08125 83.025,35.1875 85.578125,35.1875 C88.13125,35.1875 89.821875,33.13125 89.821875,29.43125 C89.821875,25.73125 88.053125,23.621875 85.5,23.621875 L85.5,23.621875 Z"/></g></g></g></svg>

<svg width="222" height="59" version="1.1" viewBox="0 0 222 59" xmlns="http://www.w3.org/2000/svg"><g fill="none" fill-rule="evenodd"><g transform="translate(-755 -1587)" fill-rule="nonzero"><g transform="translate(755 1587)" style="mix-blend-mode:luminosity"><g transform="translate(.17238)"><path d="m63.949 14.983c-0.71562-1.4781-1.5438-2.9047-2.5047-4.25l-10.266 3.7359c1.1938 1.2219 2.1969 2.5953 3.0172 4.0641l9.7531-3.55zm-45.379 11.354-10.269 3.7359c0.13125 1.6469 0.41562 3.2734 0.81406 4.8672l9.7547-3.5516c-0.31719-1.65-0.42969-3.35-0.3-5.0516z" fill="#1FA385"/><path d="m41.359 12.075c2.1359 0.99688 3.9859 2.3563 5.5469 3.95l10.266-3.7359c-2.8438-3.9906-6.7172-7.325-11.462-9.5391-14.677-6.8438-32.186-0.47188-39.028 14.203-2.2156 4.7484-3.0391 9.7922-2.6516 14.677l10.267-3.7359c0.17031-2.225 0.7125-4.4547 1.7078-6.5922 4.4469-9.5344 15.82-13.672 25.355-9.2266" fill="#1FA385"/><path d="m52.309 30.835c-0.16406 2.2234-0.725 4.4531-1.7234 6.5922-4.4453 9.5359-15.82 13.673-25.353 9.2281-2.1391-0.99844-4.0031-2.3469-5.5578-3.9438l-10.245 3.7281c2.8375 3.9906 6.7062 7.3266 11.455 9.5422 14.677 6.8422 32.183 0.47031 39.027-14.206 2.2172-4.7453 3.0344-9.7891 2.6438-14.669l-10.245 3.7281z" fill="#1FA385"/><path d="m54.833 18.301-9.7547 3.55c1.8125 3.2469 2.6688 6.9844 2.3875 10.744l10.245-3.7266c-0.29375-3.6766-1.2734-7.2656-2.8781-10.567m-45.078 16.405-9.7547 3.5531c0.89531 3.5562 2.45 6.9359 4.5875 9.9438l10.244-3.7297c-2.6297-2.7-4.3781-6.1172-5.0766-9.7672" fill="#1FA385"/><path d="m62.462 12.279c-0.32344-0.525-0.65938-1.0422-1.0172-1.5453l-10.266 3.7359c0.45156 0.4625 0.86719 0.95312 1.2641 1.4562l10.019-3.6469zm-43.931 16.12c-0.025-0.68438-0.014125-1.3719 0.039-2.0609l-10.269 3.7359c0.053125 0.65781 0.13594 1.3109 0.23438 1.9625l9.9953-3.6375h6.25e-5z" fill="#144D3F"/><path d="m62.553 27.107-10.245 3.7281c-0.10788 1.475-0.39531 2.9531-0.86562 4.4062l11.152-4.0656c0.07975-1.3625 0.067125-2.7219-0.040625-4.0688zm-53.123 19.334c0.78906 1.1109 1.6625 2.1703 2.6109 3.1703l11.153-4.0672c-1.3031-0.81562-2.4812-1.7672-3.5203-2.8328l-10.244 3.7297z" fill="#144D3F"/></g><path d="m209.22 20.288v1.85h5.3656v16.384h2.0312v-16.384h5.3688v-1.85h-12.766zm-12.321 1.8484v6.0438h5v1.85h-5v8.4906h-2.0312v-18.231h10.706v1.8469h-8.675zm-9.2944-1.8462h2.0312v18.234h-2.0312v-18.234zm-7.2606 18.232v-8.5969h-9.0656v8.5969h-2.0312v-18.234h2.0312v7.7906h9.0656v-7.7906h2.0312v18.234h-2.0312zm-21.667 0.28658c-2.475 0-4.6906-1.0688-6.1219-2.525l1.3562-1.5125c1.3781 1.3281 2.9688 2.1906 4.8438 2.1906 2.4219 0 3.9344-1.2 3.9344-3.1281 0-1.6938-1.0156-2.6562-4.35-3.8562-3.9344-1.4062-5.2625-2.6812-5.2625-5.3125 0-2.9188 2.2906-4.6656 5.7031-4.6656 2.45 0 4.0125 0.73125 5.55 1.9562l-1.3031 1.5875c-1.3281-1.0938-2.5531-1.6938-4.375-1.6938-2.5031 0-3.5438 1.25-3.5438 2.6844 0 1.5125 0.67812 2.3688 4.325 3.675 4.0375 1.4562 5.2875 2.8125 5.2875 5.5219 0 2.8656-2.2406 5.0781-6.0438 5.0781zm-14.354-0.28658-6.6938-9.95c-0.44375-0.67812-1.0438-1.5906-1.2781-2.0594 0 0.67812 0.053 2.9688 0.053 3.9844v8.025h-3.5969v-18.234h3.4906l6.4625 9.6375c0.44375 0.67812 1.0406 1.5906 1.275 2.0594 0-0.67812-0.05-2.9688-0.05-3.9875v-7.7094h3.5938v18.234h-3.2562 1.25e-4zm-28.753 0v-18.234h12.659v3.5688h-9.0125v3.1531h5.2375v3.5406h-5.2375v4.4031h9.4031v3.5688h-13.05zm-10.362-6.459h-4.0125v6.4594h-3.6469v-18.234h7.9719c3.4375 0 6.2781 1.9031 6.2781 5.7812 0 4.2219-2.8125 5.9938-6.5906 5.9938zm0.1845-8.2312h-4.1969v4.6875h4.2469c1.6938 0 2.6062-0.78438 2.6062-2.3719s-1.0438-2.3156-2.6562-2.3156zm-19.871 14.977c-4.7688 0-8.025-3.4906-8.025-9.3781s3.3094-9.4312 8.0781-9.4312c4.7406 0 7.9969 3.4938 7.9969 9.3812s-3.3094 9.4281-8.05 9.4281zm-0.025-15.188c-2.5531 0-4.2469 2.0594-4.2469 5.7594s1.7719 5.8062 4.325 5.8062 4.2438-2.0562 4.2438-5.7562-1.7688-5.8094-4.3219-5.8094z" fill="#144D3F"/></g></g></g></svg>
